assets/ir-logo-footer-61039508.svg

<svg width="48" height="48" viewBox="0 0 48 48" fill="none" xmlns="http://www.w3.org/2000/svg">
<g clip-path="url(#clip0_2814_2606)">
<path d="M24 0C10.7 0 0 10.7 0 24C0 37.3 10.7 48 24 48C37.3 48 48 37.3 48 24C48 10.7 37.3 0 24 0Z" fill="#EE2A27"/>
<path d="M16.4004 8.30078C18.0004 8.30078 19.4004 9.70078 19.4004 11.3008C19.4004 13.0008 18.1004 14.4008 16.4004 14.4008C14.8004 14.4008 13.4004 13.0008 13.4004 11.3008C13.4004 9.70078 14.7004 8.30078 16.4004 8.30078Z" fill="white"/>
<path d="M37.3004 24.9008C35.4004 24.9008 34.3004 23.3008 34.5004 21.9008C34.6004 21.2008 34.9004 20.4008 34.6004 19.6008C34.2004 18.7008 33.2004 18.8008 32.1004 19.3008C30.6004 20.0008 29.4004 22.0008 29.4004 24.3008V31.1008V32.1008C29.5004 34.2008 30.6004 35.3008 32.5004 35.3008V36.1008H21.7004H10.9004V35.3008C12.7004 35.3008 13.8004 34.1008 14.0004 32.1008L14.1004 30.8008V23.9008C14.1004 22.9008 13.8004 22.0008 13.2004 21.5008C12.6004 21.0008 11.9004 20.7008 11.0004 20.8008V20.0008C11.0004 20.0008 18.5004 17.4008 18.5004 17.3008C18.6004 17.3008 18.6004 17.3008 18.6004 17.4008V31.1008V32.1008C18.7004 34.2008 19.8004 35.3008 21.7004 35.3008C23.5004 35.3008 24.6004 34.2008 24.8004 32.1008L24.9004 30.8008V23.9008C24.9004 22.9008 24.6004 22.0008 24.0004 21.5008C23.4004 21.0008 22.7004 20.7008 21.8004 20.8008V20.0008L28.1004 17.8008L28.2004 17.9008C28.4004 18.2008 29.1004 19.2008 29.4004 20.5008C30.1004 19.8008 31.0004 19.0008 32.0004 18.4008C32.9004 17.9008 33.9004 17.5008 35.0004 17.5008C36.5004 17.5008 37.9004 18.1008 38.9004 19.0008C39.7004 19.7008 40.2004 20.9008 40.2004 21.9008C40.2004 23.3008 39.2004 24.9008 37.3004 24.9008Z" fill="white"/>
</g>
<defs>
<clipPath id="clip0_2814_2606">
<rect width="48" height="48" fill="white"/>
</clipPath>
</defs>
</svg>

<svg xmlns="http://www.w3.org/2000/svg" width="48" height="48" fill="none" viewBox="0 0 48 48"><g clip-path="url(#a)"><path fill="#EE2A27" d="M24 0C10.7 0 0 10.7 0 24s10.7 24 24 24 24-10.7 24-24S37.3 0 24 0Z"/><path fill="#fff" d="M16.4 8.3c1.6 0 3 1.4 3 3 0 1.7-1.3 3.1-3 3.1-1.6 0-3-1.4-3-3.1 0-1.6 1.3-3 3-3Zm20.9 16.6c-1.9 0-3-1.6-2.8-3 .1-.7.4-1.5.1-2.3-.4-.9-1.4-.8-2.5-.3-1.5.7-2.7 2.7-2.7 5v7.8c.1 2.1 1.2 3.2 3.1 3.2v.8H10.9v-.8c1.8 0 2.9-1.2 3.1-3.2l.1-1.3v-6.9c0-1-.3-1.9-.9-2.4-.6-.5-1.3-.8-2.2-.7V20s7.5-2.6 7.5-2.7c.1 0 .1 0 .1.1v14.7c.1 2.1 1.2 3.2 3.1 3.2 1.8 0 2.9-1.1 3.1-3.2l.1-1.3v-6.9c0-1-.3-1.9-.9-2.4-.6-.5-1.3-.8-2.2-.7V20l6.3-2.2.1.1c.2.3.9 1.3 1.2 2.6.7-.7 1.6-1.5 2.6-2.1.9-.5 1.9-.9 3-.9 1.5 0 2.9.6 3.9 1.5.8.7 1.3 1.9 1.3 2.9 0 1.4-1 3-2.9 3Z"/></g><defs><clipPath id="a"><path fill="#fff" d="M0 0h48v48H0z"/></clipPath></defs></svg>
